dist/svg/icon-ui-cpu.svg

<svg xmlns="http://www.w3.org/2000/svg" viewBox="0 0 24 24" fill="none" stroke="currentColor" stroke-width="2" stroke-linecap="round" stroke-linejoin="round" class="feather feather-cpu"><rect x="4" y="4" width="16" height="16" rx="2" ry="2"/><path d="M9 9h6v6H9zM9 1v3M15 1v3M9 20v3M15 20v3M20 9h3M20 14h3M1 9h3M1 14h3"/></svg>

<svg xmlns="http://www.w3.org/2000/svg" viewBox="0 0 24 24" fill="none" stroke="currentColor" stroke-width="2" stroke-linecap="round" stroke-linejoin="round" class="feather feather-cpu"><rect x="4" y="4" width="16" height="16" rx="2" ry="2"/><path d="M9 9H15V15H9zM9 1L9 4M15 1L15 4M9 20L9 23M15 20L15 23M20 9L23 9M20 14L23 14M1 9L4 9M1 14L4 14"/></svg>
